!!!COM: Claude Goudimel
!!!OMD: Psalm 123: A toy, ô Dieu, qui est là-haut
**kern	**kern	**kern	**kern
*part4	*part3	*part2	*part1
*staff4	*staff3	*staff2	*staff1
*I"bassus	*I"tenor	*I"contra	*I"superius
*clefF4	*clefC4	*clefC3	*clefC1
*k[b-]	*k[b-]	*k[b-]	*k[b-]
!!LO:TX:omd:t=
*M2/2	*M2/2	*M2/2	*M2/2
*met(c|)	*met(c|)	*met(c|)	*met(c|)
=1	=1	=1	=1
1FF	1A	1c	1f
=2	=2	=2	=2
1BB-	1F	1B-	1d
=3	=3	=3	=3
1GG	1G	1B-	1d
=4	=4	=4	=4
2FF	2A	2c	2f
2FF	2A	2c	2f
=5	=5	=5	=5
2C	2G	2c	2e
2D	2F	2A	2d
=6	=6	=6	=6
1D	1A	1d	1f
=7	=7	=7	=7
1G	1B-	1d	1g
=8	=8	=8	=8
2F	2c	2f	2a
2F	2A	2c	2f
=9	=9	=9	=9
2F	2A	2c	2f
2C	[2G	2c	2e
=10	=10	=10	=10
1D	2G]	1F	1A
.	[2F	.	.
=11	=11	=11	=11
1C	2F]	1G	1c
.	2E	.	.
=12	=12	=12	=12
1FF	1F	1A	1c
=13	=13	=13	=13
1r	1r	1r	1r
=14	=14	=14	=14
1F	1F	1A	1c
=15	=15	=15	=15
2D	2F	2A	2d
2C	2G	2c	2e
=16	=16	=16	=16
2F	2A	2c	2f
2F	2A	2c	2f
=17	=17	=17	=17
2F	2c	2A	2f
2BB-	2B-	2d	2f
=18	=18	=18	=18
1F	1A	1c	1f
=19	=19	=19	=19
1C	1G	1c	1e
=20	=20	=20	=20
1D	1F	1A	1d
=21	=21	=21	=21
2AA	2E	2A	2c
2D	2F	2A	2d
=22	=22	=22	=22
2C	2G	2c	2e
2F	2A	2c	[2f
=23	=23	=23	=23
1BB-	1B-	1d	2f]
.	.	.	[2g
=24	=24	=24	=24
1C	1A	1c	2g]
.	.	.	[2f
=25	=25	=25	=25
1C	1G	1c	2f]
.	.	.	2e
=26	=26	=26	=26
1FF	1F	1c	1f
=27	=27	=27	=27
1r	1r	1r	1r
=28	=28	=28	=28
1F	1A	1c	1f
=29	=29	=29	=29
2D	2A	2d	2f
2G	2B-	2d	2g
=30	=30	=30	=30
1F	1c	1f	1a
=31	=31	=31	=31
1BB-	1B-	1d	1f
=32	=32	=32	=32
2F	2A	2c	2f
2C	2G	2c	2e
=33	=33	=33	=33
2D	2F	2A	2d
2E-X	2G	2c	[2g
=34	=34	=34	=34
1D	1A	1d	2g]
.	.	.	2f#X
=35	=35	=35	=35
2GG	2G	2Bn	2g
2GG	2B-	2d	2g
=36	=36	=36	=36
2D	2A	2d	2f
2GG	2G	2B-X	2e
=37	=37	=37	=37
2BB-	2F	2B-	2d
2C	2E	2G	[2c
=38	=38	=38	=38
1GG	1D	1G	2c]
.	.	.	2Bn
=39	=39	=39	=39
1C	1C	1G	1c
=40	=40	=40	=40
1r	1r	1r	1r
=41	=41	=41	=41
1D	1F	1d	1A
=42	=42	=42	=42
2D	2A	2d	2f
2G	2B-	2d	2g
=43	=43	=43	=43
1F	1c	1f	1a
=44	=44	=44	=44
1C	1c	1e	1g
=45	=45	=45	=45
2D	2A	2d	2f
2D	2A	2d	2f
=46	=46	=46	=46
1D	1F	1A	1d
=47	=47	=47	=47
1C	1G	1c	1e
=48	=48	=48	=48
2F	2A	2c	2f
2FF	2A	2c	2f
=49	=49	=49	=49
2C	2G	2c	2e
2GG	2B-	2d	[2g
=50	=50	=50	=50
1AA	1A	1c	2g]
.	.	.	[2f
=51	=51	=51	=51
1C	1G	1c	2f]
.	.	.	2e
=52	=52	=52	=52
1FF;	1F;	1c;	1f;
==	==	==	==
*-	*-	*-	*-
!!!software: music21 v.9.7.1
!!!software: music21 v.9.1.0
!!!RDF**kern: > = above
!!!RDF**kern: < = below
